X:1
T:The Mountains of Iveragh
M:6/8
L:1/8
Q:80
C:Arr. by Tadhg o'Crowley
S:March 6/8
K:HP
|: A | \
{Gdc}d3/2e/2d{gcd}c2{e}A | \
{Gdc}d2f{g}f/2a3/2A | \
{Gdc}d2f{g}f/2a3/2d |
{gcd}c2e{g}e3/2c/2A | \
{Gdc}d3/2e/2d{gcd}c2{e}A | \
{Gdc}d2f{g}f/2a3/2f |
{g}A3/2{d}c/2e{gf}g3/2e/2c | \
{Gdc}d3-d2 :: \
f/2g/2 |
{ag}a3{fg}f2d | \
{ag}a2f{gfg}f3/2e/2d | \
{gf}g2B{gef}e2d |
{gcd}c2e{g}e3/2c/2A|1
{ag}a3{fg}f2d | \
{ag}a2f{gfg}f3/2e/2d |
{g}A3/2{d}c/2e{gf}g3/2e/2c | \
{Gdc}d3-d2:|2
{Gdc}d3/2e/2d{gcd}c2{e}A |
{Gdc}d2f{g}f/2a3/2f | \
{g}A3/2{d}c/2e{gf}g3/2e/2c | \
{Gdc}d3-d2|] |:
A | \
{Gdc}d3{gfg}f2A | \
{Gdc}d2f{g}f3/2e/2d | \
{gcd}c2A{gef}e2A |
{gcd}c2e{g}e3/2c/2A | \
{Gdc}d3{gfg}f2A | \
{Gdc}d2f{g}f3/2e/2d |
{g}A3/2{d}c/2e{gf}g3/2e/2c | \
{Gdc}d3-d2 :: \
f/2g/2 |
a2{GdG}a{g}f/2a3/2d | \
{g}d3a{fg}f3/2e/2d | \
g2{GdG}g{g}B3/2cd |
{g}e3/2f/2d{gcd}c3/2B/2A|1
a2{GdG}a{g}f/2a3/2d | \
{g}d3a{fg}f3/2e/2d:|2
{Gdc}d3/2e/2d{gcd}c3/2B/2A | \
{Gdc}d3f{g}f/2a3/2f | \
{g}A3/2{d}c/2e{gf}g3/2e/2c |
{Gdc}d3-d2 :|
